16x16/panel/indicator-sensors-memory.svg

<svg height="16" width="16" xmlns="http://www.w3.org/2000/svg"><path d="m0 13c0 .554.446 1 1 1h5v-2h-6zm0-2h16v-3a1 1 0 0 1 -1-1 1 1 0 0 1 .93-.998 1.5 1.5 0 0 1 .07-.002v-2c0-.554-.446-1-1-1h-14c-.554 0-1 .446-1 1v2a1 1 0 0 1 .1.006 1 1 0 0 1 .9.994 1 1 0 0 1 -1 1zm3-2v-4h2v4zm4 0v-4h2v4zm1 5h7c.554 0 1-.446 1-1v-1h-8zm3-5v-4h2v4z" fill="#bebebe"/></svg>

<svg xmlns="http://www.w3.org/2000/svg" width="16" height="16"><path d="M0 13c0 .554.446 1 1 1h5v-2H0zm0-2h16V8a1 1 0 0 1-1-1 1 1 0 0 1 .93-.998A1.5 1.5 0 0 1 16 6V4c0-.554-.446-1-1-1H1c-.554 0-1 .446-1 1v2a1 1 0 0 1 .1.006A1 1 0 0 1 1 7a1 1 0 0 1-1 1v3zm3-2V5h2v4zm4 0V5h2v4zm1 5h7c.554 0 1-.446 1-1v-1H8zm3-5V5h2v4z" fill="currentColor" color="#bebebe"/></svg>
